!!!COM: Haydn, Franz Joseph
!!!OTL: String Quartet in G Minor
!!!OPS: Opus 20
!!!ONM: No. 3
!!!OMD: Allegro di molto
!!!OMV: 4
!!!SCT: H III:33
!!!SCA: Thematisch-bibliographisches Werkevererzeichnis (A. van Hoboken)
!!!YOR: Pleyel Edition, volume 3
!!!ENC: Frances Bennion
!!!ENC: Harmonic analysis by Nestor Napoles
!!!CDT: 1732/3/31/-1809/5/31/
!!!CNT: Oesterreich
!!!YEC: Copyright (c) 1994, 2000 Center for Computer Assisted Research in the Humanities
!!!YEM: Rights to all derivative editions reserved.
!!!YEM: Refer to licensing agreement for further details.
!!!YEN: United States of America
**harm	**commentary	**kern	**kern	**kern	**kern
*k[f#c#]	*k[f#c#]	*k[f#c#]	*k[f#c#]	*k[f#c#]	*k[f#c#]
*b:	*b:	*b:	*b:	*b:	*b:
*	*	*clefF4	*clefC3	*clefG2	*clefG2
*M4/4	*M4/4	*M4/4	*M4/4	*M4/4	*M4/4
*staff1/2/3/4	*	*staff1	*staff2	*staff3	*staff4
.	.	2..r	2..r	2..r	2..r
.	Exposition section	8r	8r	8f#	8r
=1	=1	=1	=1	=1	=1
i	Theme A	8r	2r	4dd	2r
.	.	8B	.	.	.
.	.	8c#	.	8cc#	.
.	.	8d	.	8b	.
V7d	.	2e	2f#	2a#	8r
.	.	.	.	.	8cc#
.	.	.	.	.	8cc#
.	.	.	.	.	8ff#
=2	=2	=2	=2	=2	=2
ib	Neighbour minor second in the first violin	4.d	4.B	4b	16ff#
.	.	.	.	.	16ee#
.	.	.	.	.	16ff#
.	.	.	.	.	16ee#
.	.	.	.	2.r	8ff#
.	.	8d	8f#	.	8b
viiob	.	8c#	8e	.	8a#
.	.	8B	8d	.	8b
.	.	8A#	8c#	.	8cc#
.	.	8G#	8B	.	8dd
=3	=3	=3	=3	=3	=3
V7	.	4F#	4A#	1r	8ff#
.	.	.	.	.	8ee
.	.	2.r	2.r	.	8ccc#
.	.	.	.	.	8b
.	.	.	.	.	8a#
.	.	.	.	.	8b
.	.	.	.	.	8cc#
.	.	.	.	.	8dd
=4	=4	=4	=4	=4	=4
.	Continuation of the same dominant seventh harmony	1r	1r	4r	8ff#
.	.	.	.	.	8ee
.	.	.	.	4ccc#	4eee
.	.	.	.	4.r	2r
.	.	.	.	8f#	.
=5	=5	=5	=5	=5	=5
i	.	8r	2r	4dd	2r
.	.	8B	.	.	.
.	.	8c#	.	8cc#	.
.	.	8d	.	8b	.
V7d	.	2e	[2f#	2a#	8r
.	.	.	.	.	8cc#
.	.	.	.	.	8cc#
.	.	.	.	.	8ff#
=6	=6	=6	=6	=6	=6
ib	.	2d	4.f#]	2b	16ff#
.	.	.	.	.	16ee#
.	.	.	.	.	16ff#
.	.	.	.	.	16ee#
.	.	.	.	.	4ff#
.	.	.	8B	.	.
V7d	.	2e	[2f#	2a#	8r
.	.	.	.	.	8cc#
.	.	.	.	.	8cc#
.	.	.	.	.	8ff#
=7	=7	=7	=7	=7	=7
ib	.	4d	4f#]	4b	16ff#
.	.	.	.	.	16ee#
.	.	.	.	.	16ff#
.	.	.	.	.	16ee#
.	.	2.r	2.r	2.r	8ff#
.	.	.	.	.	8bb
.	.	.	.	.	16bb
.	.	.	.	.	16aa#
.	.	.	.	.	16bb
.	.	.	.	.	16aa#
.	.	.	.	.	8bb
.	.	.	.	.	8ddd
=8	=8	=8	=8	=8	=8
.	.	4r	4r	4r	4ddd
Gn	.	4B	4g	4dd	4ee#
V7b	Very strange resolution of the german augmented sixth, the c# is expected to move to d, but is leaping to A instead	4A#	4f#	4ee	4ccc#
.	.	4r	4r	4r	8r
.	.	.	.	.	8ee
=9	=9	=9	=9	=9	=9
i	.	4B	4f#	4f#	16dd
.	.	.	.	.	16cc#
.	.	.	.	.	16dd
.	.	.	.	.	16cc#
.	.	4r	4r	4r	8dd
VI	The wide leap of this interval makes it sound as its own harmonic movement	.	.	.	8gg
Nb	.	4E	4c	4g	16cc
.	.	.	.	.	16b
.	.	.	.	.	16cc
.	.	.	.	.	16b
.	.	4r	4r	4r	8cc
.	.	.	.	.	8ee
=10	=10	=10	=10	=10	=10
V	.	16F#	16f#	16f#	16f#
.	.	16E#	16e#	16e#	16e#
.	.	16F#	16f#	16f#	16f#
.	.	16E#	16e#	16e#	16e#
.	.	8F#	8f#	8f#	8f#
.	.	8A#	8a#	8a#	8a#
i	.	4BB	4B	4B	4B
.	.	4r	4r	4r	8r
.	.	.	.	.	8f#
=11	=11	=11	=11	=11	=11
i	.	8r	2r	2r	4dd
.	.	8B	.	.	.
.	.	8c#	.	.	8cc#
.	.	8d	.	.	8b
V7d	.	2e	[2f#	8r	2a#
.	.	.	.	8cc#	.
.	.	.	.	8cc#	.
.	.	.	.	8ff#	.
=12	=12	=12	=12	=12	=12
ib	.	4d	4f#]	16ff#	4b
.	.	.	.	16ee#	.
.	.	.	.	16ff#	.
.	.	.	.	16ee#	.
.	.	2r	2r	4ff#	2r
.	.	.	.	4.r	.
.	.	8r	8r	.	8r
.	.	8d	8dd	8dd	8dd
=13	=13	=13	=13	=13	=13
VI	.	4g	4gg	4gg	4gg
.	.	8d	8dd	8dd	8dd
.	.	8B	8b	8b	8b
VI7	Cannot be considered a dominant seventh as Ab does not belong to any diatonic degree in G minor	4G	4g	4g	4g
.	.	4F	4f	4f	4f
=14	=14	=14	=14	=14	=14
viioD7/III	.	4E	4e	4e	4e
.	.	4D	4d	4d	4d
.	.	2C#	4c#	4c#	4c#
.	.	.	4g	4b-	4b-
=15	=15	=15	=15	=15	=15
V7b/III	.	8c#	2ee	16a	2gg
.	.	.	.	16g#	.
.	.	8c#	.	16a	.
.	.	.	.	16g#	.
.	.	8c#	.	8a	.
.	.	8c#	.	8r	.
III	.	8d	2dd	16a	2ff#
.	.	.	.	16g#	.
.	.	8d	.	16a	.
.	.	.	.	16g#	.
.	.	8d	.	8a	.
.	.	8d	.	8r	.
=16	=16	=16	=16	=16	=16
V7b/III	.	8G	2ee	16a	2ccc#
.	.	.	.	16g#	.
.	.	8G	.	16a	.
.	.	.	.	16g#	.
.	.	8G	.	8a	.
.	.	8G	.	8r	.
IIIb	.	8F#	2dd	16a	2ddd
.	.	.	.	16g#	.
.	.	8F#	.	16a	.
.	.	.	.	16g#	.
.	.	8F#	.	8a	.
.	.	8F#	.	8r	.
=17	=17	=17	=17	=17	=17
V7c/V/III	.	8B	4b	16dd	2g#
.	.	.	.	16cc#	.
.	.	8B	.	16dd	.
.	.	.	.	16cc#	.
.	.	8B	4e	16dd	.
.	.	.	.	16ff#	.
.	.	8B	.	16ee	.
.	.	.	.	16dd	.
V/III	.	4A	4e	4cc#	4a
.	.	8r	4r	4r	4r
.	.	8A	.	.	.
=18	=18	=18	=18	=18	=18
*D:	*D:	*D:	*D:	*D:	*D:
I[III]	Theme B	4f#	2r	8r	2r
.	.	.	.	8d	.
.	.	8e	.	8e	.
.	.	8d	.	8f#	.
V7b	.	2c#	[2a	2g	8r
.	.	.	.	.	8ee
.	.	.	.	.	8ee
.	.	.	.	.	8aa
=19	=19	=19	=19	=19	=19
I	.	2d	4.a]	2f#	16aa
.	.	.	.	.	16gg#
.	.	.	.	.	16aa
.	.	.	.	.	16gg#
.	.	.	.	.	4aa
.	.	.	8dd	.	.
V7b	.	2c#	[2a	2g	8r
.	.	.	.	.	8ee
.	.	.	.	.	8ee
.	.	.	.	.	8aa
=20	=20	=20	=20	=20	=20
I	.	2d	4.a]	2f#	16aa
.	.	.	.	.	16gg#
.	.	.	.	.	16aa
.	.	.	.	.	16gg#
.	.	.	.	.	4aa
.	.	.	8dd	.	.
V7c	.	2e	4.cc#	2g	8r
.	.	.	.	.	8aa
.	.	.	.	.	8aa
.	.	.	8a	.	8ccc#
=21	=21	=21	=21	=21	=21
Ib	.	4f#	4d	4a	16ddd
.	.	.	.	.	16ccc#
.	.	.	.	.	16ddd
.	.	.	.	.	16ccc#
.	.	4r	4r	4r	8ddd
.	.	.	.	.	8fff#
IV	.	4g	4d	4dd	16bb
.	.	.	.	.	16aa#
.	.	.	.	.	16bb
.	.	.	.	.	16aa#
.	.	4r	4r	4r	8bb
.	.	.	.	.	8ddd
=22	=22	=22	=22	=22	=22
iib	.	4G	4g	4b	16ee
.	.	.	.	.	16dd#
.	.	.	.	.	16ee
.	.	.	.	.	16dd#
.	.	2.r	2.r	2.r	16ee
.	.	.	.	.	16gg
.	.	.	.	.	16g
.	.	.	.	.	16gg
.	.	.	.	.	8g
.	.	.	.	.	8bb
*	*	*	*	*	*
.	.	.	.	.	8bb
.	.	.	.	.	8bb
=23	=23	=23	=23	=23	=23
.	.	4G	4e	4b	16ee
.	.	.	.	.	16dd#
.	.	.	.	.	16ee
.	.	.	.	.	16dd#
.	.	2.r	2.r	2.r	16ee
.	.	.	.	.	16gg
.	.	.	.	.	16g
.	.	.	.	.	16gg
.	.	.	.	.	8g
.	.	.	.	.	8ddd
.	.	.	.	.	8ddd
.	.	.	.	.	8ddd
=24	=24	=24	=24	=24	=24
viioD7b/V	.	1B	1d	2.f	[2B [2g#
.	.	.	.	.	8B] 8g#]
.	.	.	.	.	8f
.	.	.	.	4d	8e
.	.	.	.	.	8d
=25	=25	=25	=25	=25	=25
V	.	4A	4A	4e	8c# 8a
.	.	.	.	.	8b
.	.	2.r	2.r	2.r	8cc#
.	.	.	.	.	8dd
.	.	.	.	.	8ee
.	.	.	.	.	8ff#
.	.	.	.	.	8gg
.	.	.	.	.	8aa
=26	=26	=26	=26	=26	=26
.	.	2.r	2.r	2.r	8bb
.	.	.	.	.	8ccc#
.	.	.	.	.	8ddd
.	.	.	.	.	8eee
.	.	.	.	.	8fff#
.	.	.	.	.	8ggg
V7d	.	4G	4a	8cc#	8eee
.	.	.	.	8ee	8ccc#
=27	=27	=27	=27	=27	=27
V7b/IV	.	4F#	4a	4dd	8ddd
.	.	.	.	.	8fff#
.	.	4r	4r	4r	8aa
.	.	.	.	.	8ccc
IV	.	4G	4g	4dd	8aa#
.	.	.	.	.	8bb
.	.	4r	4r	4r	8ccc#
.	.	.	.	.	8ddd
=28	=28	=28	=28	=28	=28
(iio)	.	2..r	2..r	2r	8dd#
.	.	.	.	.	8ee
.	.	.	.	.	8ff#
.	.	.	.	.	8gg
V7	.	.	.	8r	8a
.	.	.	.	8ff#	8aa
.	.	.	.	8ee	8gg
.	.	8A	8A	8cc#	8ee
=29	=29	=29	=29	=29	=29
Ib	.	4f#	4a	4dd	4dd
.	.	8e	8g	8r	8r
.	.	8d	8f#	8a	8a
V7	Appoggiatura in the first violin	4c#	4e	4gg	4bb
.	.	8r	8r	8ff#	8aa
.	.	8A	8A	8ee	8gg
=30	=30	=30	=30	=30	=30
Ib	.	4f#	4a	4dd	4ff#
.	.	8e	8g	8r	8r
.	.	8d	8f#	8a	8a
V7	.	4c#	4e	4gg	4bb
.	.	8r	8r	8ff#	8aa
.	.	8A	8A	8ee	8gg
=31	=31	=31	=31	=31	=31
I	.	4d	4f#	16dd	16ff#
.	.	.	.	16ee	16gg
.	.	.	.	16ff#	16aa
.	.	.	.	16gg	16bb
.	.	8c#	8e	16aa	16ccc#
.	.	.	.	16bb	16ddd
.	.	8B	8d	16ccc#	16eee
.	.	.	.	16ddd	16fff#
V7	.	16A	16c#	2eee	[2ggg
.	.	16B	16d	.	.
.	.	16c#	16e	.	.
.	.	16d	16f#	.	.
.	.	16e	16g	.	.
.	.	16f#	16a	.	.
.	.	16g	16b	.	.
.	.	16a	16cc#	.	.
=32	=32	=32	=32	=32	=32
V7	.	2a	1cc#	1eee	2ggg]
V7b/vi	.	2a#	.	.	[2fff#
=33	=33	=33	=33	=33	=33
vi	.	2b	1dd	2ddd	2fff#]
viioD7/V	.	2g#	.	2bb	2fff
=34	=34	=34	=34	=34	=34
V7	.	2a	2cc#	2gg	2eee
vi	Deceptive cadence	2b	2dd	2ff#	2ddd
=35	=35	=35	=35	=35	=35
V7/IV	.	1f#	2.a	[1dd	2.ccc
.	Does not look to me as a harmonic function, but and ornament leading tone to G in the first violin	.	4dd	.	4aa#
=36	=36	=36	=36	=36	=36
IV	.	4g	4g	4dd]	8bb
.	.	.	.	.	8aa#
.	.	2.r	2.r	2.r	8bb
.	.	.	.	.	8ddd
ii	.	.	.	.	8dd#
.	.	.	.	.	8ee
.	.	.	.	.	8gg
.	.	.	.	.	8bb
=37	=37	=37	=37	=37	=37
Ic	.	4A	16d	16f#	2a
.	.	.	16c#	16e#	.
.	.	.	16d	16f#	.
.	.	.	16c#	16e#	.
.	.	4r	8d	8f#	.
.	.	.	8f#	8dd	.
V7	.	4AA	8r	8r	2ee
.	.	.	8c#	8g	.
.	.	4r	8c#	8g	.
.	.	.	8c#	8g	.
=38	=38	=38	=38	=38	=38
I	.	16d	4d	4f#	4dd
.	.	16c#	.	.	.
.	.	16d	.	.	.
.	.	16c#	.	.	.
.	.	4d	4r	4r	4r
V7	.	8r	2ee	2cc#	2gg
.	.	8A	.	.	.
.	.	8A	.	.	.
.	Anticipation	8d	.	.	.
=39	=39	=39	=39	=39	=39
I	.	16d	2dd	2dd	2ff#
.	.	16c#	.	.	.
.	.	16d	.	.	.
.	.	16c#	.	.	.
.	.	4d	.	.	.
V7	.	8r	2ee	2gg	2ccc#
.	.	8A	.	.	.
.	.	8A	.	.	.
.	Anticipation	8d	.	.	.
=40	=40	=40	=40	=40	=40
I	.	16d	2dd	2ff#	2ddd
.	.	16c#	.	.	.
.	.	16d	.	.	.
.	.	16c#	.	.	.
.	.	4d	.	.	.
V7	.	8r	2ee	2cc#	2gg
.	.	8A	.	.	.
.	.	8A	.	.	.
.	.	8d	.	.	.
=41	=41	=41	=41	=41	=41
I	.	16d	2dd	2dd	2ff#
.	.	16c#	.	.	.
.	.	16d	.	.	.
.	.	16c#	.	.	.
.	.	4d	.	.	.
V7	.	8r	2e	2g	2cc#
.	.	8AA	.	.	.
.	.	8AA	.	.	.
.	.	8D	.	.	.
=42	=42	=42	=42	=42	=42
I	.	16D	4d	4f#	4dd
.	.	16C#	.	.	.
.	.	16D	.	.	.
.	.	16C#	.	.	.
.	.	4D	2r	2r	2r
.	.	4.r	.	.	.
.	End of the exposition section	.	8r	8r	8r
.	Development section	8r	8r	8f#	8a
=43	=43	=43	=43	=43	=43
I	.	1r	2r	4ff#	4aa
.	.	.	.	8ee	8gg
.	.	.	.	8dd	8ff#
Vc	.	.	8r	2cc#	2ee
.	.	.	8e	.	.
.	.	.	8e	.	.
.	.	.	8a	.	.
=44	=44	=44	=44	=44	=44
Ic	.	1r	16a	2dd	2ff#
.	.	.	16g#	.	.
.	.	.	16a	.	.
.	.	.	16g#	.	.
.	.	.	4a	.	.
V7c	.	.	8r	2cc#	2gg
.	.	.	8e	.	.
.	.	.	8e	.	.
.	.	.	8a	.	.
=45	=45	=45	=45	=45	=45
Ic	.	1r	16a	2dd	2ff#
.	.	.	16g#	.	.
.	.	.	16a	.	.
.	.	.	16g#	.	.
.	.	.	4a	.	.
V7/V	Moving the harmony towards F Major	.	8r	2b	2gg#
.	.	.	8e	.	.
.	.	.	8e	.	.
.	Anticipation	.	8a	.	.
=46	=46	=46	=46	=46	=46
V	.	1r	16a	2cc#	2aa
.	.	.	16g#	.	.
.	.	.	16a	.	.
.	.	.	16g#	.	.
.	.	.	4a	.	.
V7/V	.	.	8r	2gg#	2ddd
.	.	.	8e	.	.
.	.	.	8e	.	.
.	.	.	8a	.	.
=47	=47	=47	=47	=47	=47
*e:	*e:	*e:	*e:	*e:	*e:
IV[V]	Established F, but only temporarily, now going to C	1r	16a	4aa	4ccc#
.	.	.	16g#	.	.
.	.	.	16a	.	.
.	.	.	16g#	.	.
.	.	.	4a	2r	2r
.	.	.	2r	.	.
.	.	.	.	8r	8r
.	.	.	.	8a	8a
=48	=48	=48	=48	=48	=48
viioD7	.	2..r	2..r	8aa	8ccc
.	.	.	.	8gg	8bb
.	.	.	.	8ff#	8aa
.	.	.	.	8ee	8gg
.	.	.	.	4dd#	4ff#
.	.	.	.	4r	4r
.	.	8B	8B	.	.
=49	=49	=49	=49	=49	=49
ib	.	4g	4b	4.r	4.r
.	.	8f#	8a	.	.
.	.	8e	8g	8b	8b
viioD7	.	4d#	4f#	4aa	4ccc
.	.	8r	8r	8gg	8bb
.	.	8B	8B	8ff#	8aa
=50	=50	=50	=50	=50	=50
ib	.	4g	4b	4ee	4gg
.	.	8f#	8a	8r	8r
.	.	8e	8g	8b	8b
viioD7	.	4d#	4f#	4aa	4ccc
.	.	8r	8r	8gg	8bb
.	.	8B	8B	8ff#	8aa
=51	=51	=51	=51	=51	=51
i	.	4e	4g	4ee	4gg
.	.	8d	8f	8r	8r
.	.	8c	8e	8g	8g
V7/VI	.	4B	4d	4ff	4aa
.	.	8r	8r	8ee	8gg
.	.	8G	8G	8dd	8ff
=52	=52	=52	=52	=52	=52
VI	.	4c	4e	4cc	4ee
.	.	8B	8d	8r	8r
.	.	8A	8c	8e	8e
viioD7/iv	.	4G#	4B	4dd	4ff
.	.	8r	8r	8cc	8ee
.	.	8E	8E	8b	8dd
=53	=53	=53	=53	=53	=53
iv	.	4A	4c	4a	4cc
.	.	8G#	8B	8r	8r
.	.	8A	8c	8a	8cc
.	.	2AA	4A	4ee	4ccc
.	.	.	4f#	4cc	8aa
.	.	.	.	.	8ff#
=54	=54	=54	=54	=54	=54
V	.	8BB	2f#	16b	2dd#
.	.	.	.	16a#	.
.	.	8BB	.	16b	.
.	.	.	.	16a#	.
.	.	8BB	.	8b	.
.	.	8BB	.	8r	.
V7d	.	8A	2d#	16b	2ff#
.	.	.	.	16a#	.
.	.	8A	.	16b	.
.	.	.	.	16a#	.
.	.	8A	.	8b	.
.	.	8A	.	8r	.
=55	=55	=55	=55	=55	=55
ib	.	8G	2e	16b	2ee
.	.	.	.	16a#	.
.	.	8G	.	16b	.
.	.	.	.	16a#	.
.	.	8G	.	8b	.
.	.	8G	.	8r	.
V7b	.	8D#	2f#	16b	2aa
.	.	.	.	16a#	.
.	.	8D#	.	16b	.
.	.	.	.	16a#	.
.	.	8D#	.	8b	.
.	.	8D#	.	8r	.
=56	=56	=56	=56	=56	=56
i	.	8E	1g	16b	1gg
.	.	.	.	16a#	.
.	.	8E	.	16b	.
.	.	.	.	16a#	.
.	.	8E	.	8b	.
.	.	8E	.	8r	.
.	.	8E	.	16cc	.
.	.	.	.	16b	.
.	.	8E	.	16cc	.
.	.	.	.	16b	.
.	.	8E	.	8cc	.
.	.	8E	.	8r	.
=57	=57	=57	=57	=57	=57
V7b/III	.	1F#	[1a	[1d 1cc	8ccc
.	.	.	.	.	8aa
.	.	.	.	.	8ff#
.	.	.	.	.	8dd
.	.	.	.	.	8cc
.	.	.	.	.	8a
.	.	.	.	.	8f#
.	.	.	.	.	8d
=58	=58	=58	=58	=58	=58
.	.	4F#	4a]	4d 4cc]	4c
.	.	2.r	2.r	2r	2.r
.	.	.	.	8r	.
.	.	.	.	8d	.
=59	=59	=59	=59	=59	=59
III	.	8r	2r	4b	2r
.	.	8G	.	.	.
.	.	8A	.	8a	.
.	.	8B	.	8g	.
V7d/III	.	2c	2d	2f#	8r
.	.	.	.	.	8a
.	.	.	.	.	8a
.	.	.	.	.	8dd
=60	=60	=60	=60	=60	=60
IIIb	.	2B	4.d	2g	16dd
.	.	.	.	.	16cc#
.	.	.	.	.	16dd
.	.	.	.	.	16cc#
.	.	.	.	.	4dd
.	.	.	8G	.	.
V7d/III	.	2c	[2d	2f#	8r
.	.	.	.	.	8a
.	.	.	.	.	8a
.	.	.	.	.	8dd
=61	=61	=61	=61	=61	=61
IIIb	.	4B	4d]	4g	16dd
.	.	.	.	.	16cc#
.	.	.	.	.	16dd
.	.	.	.	.	16cc#
.	.	2.r	2.r	2.r	16dd
.	.	.	.	.	16gg
.	.	.	.	.	16g
.	.	.	.	.	16gg
.	.	.	.	.	8g
.	.	.	.	.	8gg
.	.	.	.	.	8gg
.	.	.	.	.	8gg
=62	=62	=62	=62	=62	=62
viioD7b/iv	.	4B	4f	4g#	16dd
.	.	.	.	.	16cc#
.	.	.	.	.	16dd
.	.	.	.	.	16cc#
.	.	2.r	2.r	2.r	16dd
.	.	.	.	.	16ff
.	.	.	.	.	16g#
.	.	.	.	.	16ff
.	.	.	.	.	8g#
.	.	.	.	.	8ff
.	.	.	.	.	8ff
.	.	.	.	.	8ff
=63	=63	=63	=63	=63	=63
ivb	.	4c	4a	4a	16ee
.	.	.	.	.	16dd#
.	.	.	.	.	16ee
.	.	.	.	.	16dd#
.	.	2.r	2.r	2.r	16ee
.	.	.	.	.	16aa
.	.	.	.	.	16a
.	.	.	.	.	16aa
.	.	.	.	.	8a
.	.	.	.	.	8aa
.	.	.	.	.	8aa
.	.	.	.	.	8aa
=64	=64	=64	=64	=64	=64
viioD7b/v	.	4c#	4g	4a#	16ee
.	.	.	.	.	16dd#
.	.	.	.	.	16ee
.	.	.	.	.	16dd#
.	.	2.r	2.r	2.r	16ee
.	.	.	.	.	16gg
.	.	.	.	.	16a#
.	.	.	.	.	16gg
.	.	.	.	.	8a#
.	.	.	.	.	8gg
.	.	.	.	.	8gg
.	.	.	.	.	8gg
=65	=65	=65	=65	=65	=65
vb	.	4d	4b	4b	16ff#
.	.	.	.	.	16ee#
.	.	.	.	.	16ff#
.	.	.	.	.	16ee#
.	.	2.r	2.r	2.r	16ff#
.	.	.	.	.	16bb
.	.	.	.	.	16b
.	.	.	.	.	16bb
.	.	.	.	.	8b
.	.	.	.	.	8bb
.	.	.	.	.	8bb
.	.	.	.	.	8bb
=66	=66	=66	=66	=66	=66
Vb	.	4d#	4b	4b	16ff#
.	.	.	.	.	16ee#
.	.	.	.	.	16ff#
.	.	.	.	.	16ee#
.	.	2.r	2.r	2.r	16ff#
.	.	.	.	.	16aa
.	.	.	.	.	16b
.	.	.	.	.	16aa
.	.	.	.	.	8b
.	.	.	.	.	8aa
.	.	.	.	.	8aa
.	.	.	.	.	8aa
=67	=67	=67	=67	=67	=67
i	.	16e	1b	[1ee	[1gg
.	.	16d#	.	.	.
.	.	16e	.	.	.
.	.	16d#	.	.	.
.	.	8e	.	.	.
.	.	8E	.	.	.
.	.	8G	.	.	.
.	.	8B	.	.	.
.	.	8e	.	.	.
.	.	8B	.	.	.
=68	=68	=68	=68	=68	=68
VI	.	8c	1cc	1ee_	1gg]
.	.	8C	.	.	.
.	.	8E	.	.	.
.	.	8G	.	.	.
.	.	8c	.	.	.
.	.	8e	.	.	.
.	.	8C	.	.	.
.	.	8BB	.	.	.
=69	=69	=69	=69	=69	=69
V7b/V	.	8AA#	[1cc#	1ee_	[1ff#
.	.	8C#	.	.	.
.	.	8E	.	.	.
.	.	8F#	.	.	.
.	.	8A#	.	.	.
.	.	8c#	.	.	.
.	.	8e	.	.	.
.	.	8f#	.	.	.
=70	=70	=70	=70	=70	=70
.	.	4a#	4cc#]	4ee]	4ff#]
.	.	2.r	2.r	2r	2.r
.	.	.	.	8r	.
.	End of the development section	.	.	8f#	.
=71	=71	=71	=71	=71	=71
*b:	*b:	*b:	*b:	*b:	*b:
i	Starting recapitulation	8r	2r	4dd	2r
.	.	8B	.	.	.
.	.	8c#	.	8cc#	.
.	.	8d	.	8b	.
V7d	.	2e	2f#	2a#	8r
.	.	.	.	.	8cc#
.	.	.	.	.	8cc#
.	.	.	.	.	8ff#
=72	=72	=72	=72	=72	=72
ib	.	4.d	4.B	4b	16ff#
.	.	.	.	.	16ee#
.	.	.	.	.	16ff#
.	.	.	.	.	16ee#
.	.	.	.	2.r	8ff#
.	.	8d	8f#	.	8b
viiob	.	8c#	8e	.	8a#
.	.	8B	8d	.	8b
.	.	8A#	8c#	.	8cc#
.	.	8G#	8B	.	8dd
=73	=73	=73	=73	=73	=73
V7	.	4F#	4A#	1r	8ff#
.	.	.	.	.	8ee
.	.	2.r	2.r	.	8ccc#
.	.	.	.	.	8b
.	.	.	.	.	8a#
.	.	.	.	.	8b
.	.	.	.	.	8cc#
.	.	.	.	.	8dd
=74	=74	=74	=74	=74	=74
.	.	1r	1r	4r	8ff#
.	.	.	.	.	8ee
.	.	.	.	4ccc#	4eee
.	.	.	.	4.r	2r
.	.	.	.	8f#	.
=75	=75	=75	=75	=75	=75
i	.	8r	2r	4dd	2r
.	.	8B	.	.	.
.	.	8c#	.	8cc#	.
.	.	8d	.	8b	.
V7d	.	2e	2f#	2a#	8r
.	.	.	.	.	8cc#
.	.	.	.	.	8cc#
.	.	.	.	.	8ff#
=76	=76	=76	=76	=76	=76
ib	.	2d	4.f#	2b	16ff#
.	.	.	.	.	16ee#
.	.	.	.	.	16ff#
.	.	.	.	.	16ee#
.	.	.	.	.	4ff#
.	.	.	8B	.	.
V7d	.	2e	2f#	2a#	8r
.	.	.	.	.	8cc#
.	.	.	.	.	8cc#
.	.	.	.	.	8ff#
=77	=77	=77	=77	=77	=77
ib	.	2d	4.f#	2b	16ff#
.	.	.	.	.	16ee#
.	.	.	.	.	16ff#
.	.	.	.	.	16ee#
.	.	.	.	.	4ff#
.	.	.	8b	.	.
V7b/iv	.	2d#	2b	2a	8r
.	.	.	.	.	8ff#
.	.	.	.	.	8ff#
.	.	.	.	.	8bb
=78	=78	=78	=78	=78	=78
iv	.	2e	4.b	2g	16bb
.	.	.	.	.	16aa#
.	.	.	.	.	16bb
.	.	.	.	.	16aa#
.	.	.	.	.	4bb
.	.	.	8e	.	.
V7b/iv	.	2d#	2b	2a	8r
.	.	.	.	.	8ff#
.	.	.	.	.	8ff#
.	.	.	.	.	8bb
=79	=79	=79	=79	=79	=79
i	.	4e	4b	4g	16bb
.	.	.	.	.	16aa#
.	.	.	.	.	16bb
.	.	.	.	.	16aa#
.	.	2r	2r	2r	8bb
.	.	.	.	.	2r
.	.	8r	8r	8r	.
.	.	8d	8dd	8dd	8dd
=80	=80	=80	=80	=80	=80
VI	.	4g	4gg	4gg	4gg
.	.	8d	8dd	8dd	8dd
.	.	8B	8b	8b	8b
.	.	4G	4g	4g	4g
VI7	Or it could be seen as a dominant of the Neapolitan?	4F	4f	4f	4f
=81	=81	=81	=81	=81	=81
Gn/VI	.	1E-	2e-	2e-	2e-
.	.	.	4B-	2c#	2g
.	.	.	8A	.	.
.	.	.	8G	.	.
=82	=82	=82	=82	=82	=82
V/VI[III]	.	2D	16A	2d	2f#
.	.	.	16G#	.	.
.	.	.	16A	.	.
.	.	.	16G#	.	.
.	.	.	4A	.	.
viioD7/iv	.	2D#	2c	16f#	2a
.	.	.	.	16e#	.
.	.	.	.	16f#	.
.	.	.	.	16e#	.
.	.	.	.	4f#	.
=83	=83	=83	=83	=83	=83
iv	.	2E	16B	2e	2g
.	.	.	16A#	.	.
.	.	.	16B	.	.
.	.	.	16A#	.	.
.	.	.	4B	.	.
viioD7/V	.	2E#	2d	16g#	2b
.	.	.	.	16f##	.
.	.	.	.	16g#	.
.	.	.	.	16f##	.
.	.	.	.	4g#	.
=84	=84	=84	=84	=84	=84
V	.	2.F#	16c#	2f#	2a#
.	.	.	16B#	.	.
.	.	.	16c#	.	.
.	.	.	16B#	.	.
.	.	.	4c#	.	.
V7	.	.	2e	16a#	2cc#
.	.	.	.	16g#	.
.	.	.	.	16a#	.
.	.	.	.	16g#	.
.	.	4r	.	4a#	.
=85	=85	=85	=85	=85	=85
viioD7	This harmony holds until mm.89	4E	4g	4a# 4cc#	16ee
.	.	.	.	.	16dd#
.	.	.	.	.	16ee
.	.	.	.	.	16dd#
*	*	*	*	*	*
.	.	2.r	2.r	2.r	16ee
.	.	.	.	.	16gg
.	.	.	.	.	16g
.	.	.	.	.	16gg
.	.	.	.	.	8g
.	.	.	.	.	8ccc#
.	.	.	.	.	8aa#
.	.	.	.	.	8gg
=86	=86	=86	=86	=86	=86
.	.	4E	4g	4a# 4cc#	16ee
.	.	.	.	.	16dd#
.	.	.	.	.	16ee
.	.	.	.	.	16dd#
.	.	2.r	2.r	2.r	16ee
.	.	.	.	.	16gg
.	.	.	.	.	16g
.	.	.	.	.	16gg
.	.	.	.	.	8g
.	.	.	.	.	8eee
.	.	.	.	.	8ccc#
.	.	.	.	.	8aa#
=87	=87	=87	=87	=87	=87
.	.	[2E	[2c#	[2a#	[2gg
.	.	4E]	4c#]	4a#]	8gg]
.	.	.	.	.	8ff#
.	.	4r	4r	4r	8ee
.	.	.	.	.	8dd
=88	=88	=88	=88	=88	=88
.	.	1r	1r	1r	8cc#
.	.	.	.	.	8ee
.	.	.	.	.	8gg
.	.	.	.	.	8aa#
.	.	.	.	.	8ccc#
.	.	.	.	.	8ddd
.	.	.	.	.	8eee
.	.	.	.	.	8fff#
=89	=89	=89	=89	=89	=89
.	.	2.r	2.r	2.r	8ggg
.	.	.	.	.	8ccc#
.	.	.	.	.	8eee
.	.	.	.	.	8aa#
.	.	.	.	.	8ccc#
.	.	.	.	.	8gg
V7b	.	4A#	4f#	4f#	8ff#
.	.	.	.	.	8ee
=90	=90	=90	=90	=90	=90
i	.	4B	4B	4f#	8dd
.	.	.	.	.	8aa#
.	.	2r	2r	4.r	8bb
.	.	.	.	.	8dd
.	.	.	.	.	8cc#
.	.	.	.	8ee	8gg
.	.	8r	8r	8dd	8ff#
V7	.	8F#	8f#	8e	8a#
=91	=91	=91	=91	=91	=91
ib	.	4d	4ff#	4d	4b
.	.	8c#	8ee	8r	8r
.	.	8B	8dd	8f#	8f#
viioD7	.	4A#	4cc#	4ee	4gg
.	.	8r	8r	8dd	8ff#
.	.	8F#	8f#	8cc#	8ee
=92	=92	=92	=92	=92	=92
ib	.	4d	4ff#	4b	4dd
.	.	8c#	8ee	8r	8r
.	.	8B	8dd	8f#	8f#
viioD7	.	4A#	4cc#	4ee	4gg
.	.	8r	8r	8dd	8ff#
.	.	8F#	8F#	8cc#	8ee
=93	=93	=93	=93	=93	=93
i	.	4B	4d	16b	16dd
.	.	.	.	16cc#	16ee
.	.	.	.	16dd	16ff#
.	.	.	.	16ee	16gg#
.	.	8A#	8c#	16ff#	16aa#
.	.	.	.	16gg#	16bb
.	.	8G#	8B	16aa#	16ccc#
.	.	.	.	16bb	16ddd
V7	.	16F#	16A#	[2ccc#	[2eee
.	.	16G#	16B	.	.
.	.	16A#	16c#	.	.
.	.	16B	16d	.	.
.	.	16c#	16e	.	.
.	.	16d	16f#	.	.
.	.	16e	16g	.	.
.	.	16f#	16a#	.	.
=94	=94	=94	=94	=94	=94
.	.	2f#	2a#	2ccc#]	2eee]
VI	.	2g	2b	2bb	2ddd
=95	=95	=95	=95	=95	=95
Nb	.	2e	2cc	2gg	2ccc
viioD7/V	.	2e#	2dd	2gg#	2bb
=96	=96	=96	=96	=96	=96
V	.	4f#	4f#	4f#	8r
.	.	.	.	.	8aa#
.	.	2.r	2.r	2.r	8bb
.	.	.	.	.	8ccc#
ib	.	.	.	.	8ddd
.	.	.	.	.	8bb
.	.	.	.	.	8ff#
.	.	.	.	.	8dd
=97	=97	=97	=97	=97	=97
ic	.	4F#	16B	16d	2f#
.	.	.	16A#	16c#	.
.	.	.	16B	16d	.
.	.	.	16A#	16c#	.
.	.	4r	4B	8d	.
.	.	.	.	8b	.
V7	.	4FF#	8r	8r	2cc#
.	.	.	8e	8a#	.
.	.	4r	8e	8a#	.
.	.	.	8e	8a#	.
=98	=98	=98	=98	=98	=98
i	.	16B	4d	4b	4b
.	.	16A#	.	.	.
.	.	16B	.	.	.
.	.	16A#	.	.	.
.	.	4B	4r	4r	4r
V7	.	8r	2cc#	2a#	2ee
.	.	8F#	.	.	.
.	.	8F#	.	.	.
.	.	8B	.	.	.
=99	=99	=99	=99	=99	=99
i	.	16B	2b	2b	2dd
.	.	16A#	.	.	.
.	.	16B	.	.	.
.	.	16A#	.	.	.
.	.	4B	.	.	.
V7	.	8r	2cc#	2ee	2aa#
.	.	8F#	.	.	.
.	.	8F#	.	.	.
.	.	8B	.	.	.
=100	=100	=100	=100	=100	=100
i	.	16B	2dd	2dd	2bb
.	.	16A#	.	.	.
.	.	16B	.	.	.
.	.	16A#	.	.	.
.	.	4B	.	.	.
viiob/iv	.	8r	2f#	2a	2dd#
.	.	8F#	.	.	.
*	*	*	*	*	*
.	.	8F#	.	.	.
.	.	8B	.	.	.
=101	=101	=101	=101	=101	=101
ivc	.	16B	2b	2g	2ee
.	.	16A#	.	.	.
.	.	16B	.	.	.
.	.	16A#	.	.	.
.	.	4B	.	.	.
viioD7	.	8r	2g	2e	2a#
.	Pedal D natural	8F#	.	.	.
.	.	8F#	.	.	.
.	.	8B	.	.	.
=102	=102	=102	=102	=102	=102
i	.	16B	2f#	2d	2b
.	.	16A#	.	.	.
.	.	16B	.	.	.
.	.	16A#	.	.	.
.	.	4B	.	.	.
viio/iv	.	8r	2d#	2f#	2a
.	.	8FF#	.	.	.
.	.	8FF#	.	.	.
.	.	8BB	.	.	.
=103	=103	=103	=103	=103	=103
ivc	.	16BB	2e	2e	2g
.	.	16AA#	.	.	.
.	.	16BB	.	.	.
.	.	16AA#	.	.	.
.	.	4BB	.	.	.
V7	.	8r	2A#	2c#	2e
.	.	8FF#	.	.	.
.	.	8FF#	.	.	.
.	.	8BB	.	.	.
=104	=104	=104	=104	=104	=104
I	Tierce de picardie ending	16BB	4B	4B	4d#
.	.	16AA#	.	.	.
.	.	16BB	.	.	.
.	.	16AA#	.	.	.
.	.	4BB	2.r	2.r	2.r
.	.	2r	.	.	.
==	==	==	==	==	==
*-	*-	*-	*-	*-	*-
!!!RWG1: This file contains only pitch and duration data.
!!!RWG2: Transposing instruments are not transposed.
!!!RWG3: Spines may have incompatible meters.
!!!RWG4: Durations of rests and tied notes may be interpreted.
!!!RWG: Key is interpreted using the Humdrum key tool.
!!!GTL: 6 Divertimentos ("Sun")
!!!AFT: stage1
!!!END: 1997/04/15
!!!KEY: 2500174234
!!!EMD: Converted from MuseData to Humdrum Dec 16, 2000, by Andreas Kornstaedt using muse2kern.
!!!EMD: Manual editing by Craig Sapp, Nov 2001
!!!EMD: Correction of mm.24, Nestor Napoles, May 2017
